X:1
T: Auld Springs
C:
R:Strathspey
Q:128
K:G
M:4/4
L:1/16
|:G4 g3e edcB d4|G2AB g2B2 A3G A2B2|G4 g3e edcB d4|g3a1/2b1/2 a2g2 e3d e2g2|
G4 g3e edcB d4|G2AB g2B2 A3G A2B2|G4 g3e edcB d4|g3a1/2b1/2 a2g2 e3d e2g2|
g2b2 e2g2 d2e2 B4|d2ef g2B2 A3G A2B2|d2g2 e2g2 d2e2 B4|d2ef g2d2 e3d e2g2|
g2b2 e2g2 d2ed cB3|def2 g2B2 A3G A2B2|G4 g3e edcB d4|g3a1/2b1/2 a2g2 e3d e2g2:|
